X:1
T:Sweet Assurance
T:John Robson Sweney
T:Sweet Assurance
T:Public Domain
T:Public Domain
C:John Robson Sweney
Z:Public Domain
%%score ( 1 2 ) ( 3 4 )
L:1/8
M:9/8
K:C
V:1 treble 
V:2 treble 
V:3 bass 
V:4 bass 
V:1
 ([EG][^D^F])[EG] | [FA]3 [EG]3 ([CE][EG])[Ec] | [Ec]3 [DB]3 [DB]2 [Ec] | %3
w: 1.~Sweet * as-|sur- ance, Thou * hast|sealed me With Thy|
w: 2.~Per- * fect|peace, no fear * a-|larms me, Still the|
w: 3.~Death * is|but a bright * tran-|si- tion, From a|
w: 4.~Wel- * come|then the vale * and|sha- dow, Faith, un-|
 [Fd]3- [Fd]2 [Ec] [GB]2 [FA] | [EG]6 ([EG][^D^F])[EG] | [FA]3 [EG]3 ([CE][EG])[Ec] | %6
w: pre- * cious blood di-|vine; And * I|know, for Thou * hast|
w: bless- * èd thought is|mine; Though * my|days be few * or|
w: world * where joys de-|cline, To * the|realm of life * e-|
w: fal- * t’ring trust, is|mine; Thro’ * the|gloom Thy hand * will|
 [Ec]3 [DB]3 [DB]2 [Ec] | [Fd]3- [Fd]2 [Ec] [Ge]2 [Fd] | [Ec]6 ||"^Refrain" [Ec]2 [GB] | %10
w: told me, I in|life * or death am|Thine.||
w: ma- ny, I in|life * or death am|Thine.|Sweet as-|
w: ter- nal, Where Thy|end- * less glor- ies|shine.||
w: lead me, I in|life * or death am|Thine.||
 [GB]3 [FA]3 ([Ac][GB])[FA] | [FA]3 [EG]3 ([EG][FA])[EG] | [DF]3- [DF]2 [DF] ([DF][EG])[DF] | %13
w: |||
w: sur- ance, O * my|Sav- ior, How * it|cheers * this heart * of|
w: |||
w: |||
 [CE]6 ([CE][DF])[^D^F] | [EG]3 [EG]3 ([EG][FA])[G_B] | [G_B]3 [FA]3 (Ad)[Ec] | %16
w: |||
w: mine! While * Thy|lov- ing Spir- * it|whis- pers, I * in|
w: |||
w: |||
 [DB]3- [DB]2 [FB] [FA]2 [FB] | [Ec]6 |] %18
w: ||
w: or * death am Thine.||
w: ||
w: ||
V:2
 x3 | x9 | x9 | x9 | x9 | x9 | x9 | x9 | x6 || x3 | x9 | x9 | x9 | x9 | x9 | x6 F2 x | x9 | x6 |] %18
w: ||||||||||||||||||
w: |||||||||||||||life|||
V:3
 [C,C]2 [C,C] | [C,C]3 [C,C]3 [C,G,]2 [C,G,] | [G,,G,]3 [G,,G,]3 G,2 G, | %3
w: ~ ~|~ ~ ~ ~|~ ~ ~ ~|
 [G,B,]3- [G,B,]2 G, G,2 [G,B,] | [C,C]6 [C,C]2 [C,C] | [C,C]3 [C,C]3 [C,G,]2 [C,G,] | %6
w: ~ * ~ ~ ~|~ ~ ~|~ ~ ~ ~|
 [G,,G,]3 [G,,G,]3 G,2 G, | [G,B,]3- [G,B,]2 G, G,2 G, | [C,G,]6 || [C,G,]2 [E,C] | %10
w: ~ ~ ~ ~|~ * ~ ~ ~|How|it cheers|
 [F,C]3 [F,C]3 [F,C]2 [F,C] | [C,C]3 [C,C]3 z3 | [G,B,]2 [G,B,] [G,B,]2 [G,B,] [G,,B,]2 [G,,G,] | %13
w: ~ ~ ~ ~|~ ~|~ ~ ~ ~ ~ ~|
 [C,G,]6 [C,G,]2 [C,G,] | [C,C]3 [C,C]3 [C,C]2 [E,C] | [F,C]3 [F,C]3 z3 | %16
w: I in life|||
 G,2 G, G,2 [G,D] [G,D]2 G, | [C,G,]6 |] %18
w: ||
V:4
 x3 | x9 | x6 G,2 G, | x5 G, G,2 x | x9 | x9 | x6 G,2 G, | x5 G, G,2 G, | x6 || x3 | x9 | x9 | x9 | %13
w: ||~ ~|~ ~|||~ ~|~ ~ ~||||||
 x9 | x9 | x9 | G,2 G, G,2 x G, x2 | x6 |] %18
w: |||||

